X: 301
T: Heveynu Shalom Aleychem [Cm]
Z:2008 John Chambers <jc:trillian.mit.edu>
M:4/4
L:1/8
K:Cm
G,CE \
| "Cm"G4 "G7"E3D | "Cm"D2 C2 zCEG | "Fm"c4 A3G | "Fm"G2 F2 zFGA 
| "G7"G3D G3F | "Cm"F2 E2 zDEF | "G7"G2 G2 G2 G2 |1 "G7"G>F EF G :|2 "G7"G>F ED "Cm"C |



